dist/svg/u1F397.svg

<?xml version="1.0" encoding="UTF-8"?><svg id="a" xmlns="http://www.w3.org/2000/svg" viewBox="0 0 40 40"><g><path d="M13.068,3.511s.989-1.977,5.932-1.977,5.932,1.977,5.932,1.977c0,0,.989,4.943-.989,5.932,0,0-1.157-.989-4.943-.989s-4.943,.989-4.943,.989c-1.884-.525-.989-5.932-.989-5.932Z" fill="#df9f00"/><path d="M22.671,11.647c1.554-2.311,2.403-4.814,2.403-5.969s-.142-2.167-.142-2.167c0,0,2.825,6.259,3.673,8.28,.847,2.024-.283,4.769-1.413,6.502-.968,1.487-12.208,15.708-15.402,19.744-.462,.584-1.313,.664-1.881,.181l-3.781-3.21c-.54-.459-.626-1.256-.187-1.813,3.223-4.091,15.384-19.546,16.73-21.549Z" fill="#ffc100"/><path d="M31.872,35.009l-3.781,3.21c-.568,.482-1.418,.403-1.881-.181-3.194-4.036-14.433-18.257-15.402-19.744-1.13-1.733-2.26-4.478-1.413-6.502,.847-2.022,3.673-8.28,3.673-8.28,0,0-.142,1.01-.142,2.167s.848,3.658,2.403,5.969c1.346,2.003,13.507,17.458,16.73,21.549,.438,.557,.353,1.354-.187,1.813Z" fill="#ffda16"/></g><rect y="0" width="40" height="40" transform="translate(40 40) rotate(-180)" fill="none"/></svg>

<svg id="Layer_1" data-name="Layer 1" xmlns="http://www.w3.org/2000/svg" viewBox="0 0 40 40"><defs><style>.cls-1{fill:#df9f00;}.cls-2{fill:#ffc100;}.cls-3{fill:#ffda16;}.cls-4{fill:none;}</style></defs><path class="cls-1" d="M13.068,3.511S14.057,1.534,19,1.534s5.932,1.977,5.932,1.977.988,4.943-.989,5.932c0,0-1.157-.989-4.943-.989s-4.943.989-4.943.989C12.173,8.918,13.068,3.511,13.068,3.511Z"/><path class="cls-2" d="M22.671,11.647a13.363,13.363,0,0,0,2.4-5.969,17.5,17.5,0,0,0-.142-2.167S27.757,9.77,28.6,11.792s-.283,4.769-1.412,6.5C26.223,19.78,14.984,34,11.79,38.037a1.311,1.311,0,0,1-1.881.182l-3.781-3.21A1.31,1.31,0,0,1,5.941,33.2C9.164,29.106,21.325,13.65,22.671,11.647Z"/><path class="cls-3" d="M31.872,35.009l-3.781,3.21a1.312,1.312,0,0,1-1.881-.182C23.016,34,11.778,19.78,10.808,18.294c-1.129-1.733-2.259-4.479-1.412-6.5s3.672-8.281,3.672-8.281a17.5,17.5,0,0,0-.142,2.167,13.351,13.351,0,0,0,2.4,5.969c1.346,2,13.507,17.459,16.73,21.549A1.31,1.31,0,0,1,31.872,35.009Z"/><rect class="cls-4" width="40" height="40" transform="translate(40 40) rotate(-180)"/></svg>
